X:1
T:Offertory — Create in Me a Clean Heart
C:Psalm 51:10-12 (KJV); chant setting traditional
S:Traditional Lutheran liturgy; public domain
M:C
L:1/4
K:C
E F G A | G4 | G F E D | E4 |
E G A B | c B A G | A4 |
G F E D | C4 ||

## Musiquik
&0TUVW.v.VUTS.t.TVWX.YXWV.w.VUTS.r)

#Lyrics
Create in me a clean heart, O God, and renew a right spirit within me. Cast me not away from Thy presence; and take not Thy Holy Spirit from me. Restore unto me the joy of Thy salvation; and uphold me with Thy free spirit.

#Citations and References

Words: Psalm 51:10-12, King James Version (KJV), 1611; public domain.
Music: 'Offertory' Traditional Lutheran chant; ancient, public domain.
Setting: Lutheran Service Book (LSB), Divine Service; traditional.
copyright: public domain.

https://openhymnal.org
